source/images/bg-eat.svg

<svg width="18" height="20" viewBox="0 0 18 20" fill="none" xmlns="http://www.w3.org/2000/svg">
<path d="M18 9.35484C18 4.1967 13.9628 0 9 0C4.03721 0 0 4.1967 0 9.35484C0 13.142 2.25 16.5962 5.61379 18.0187L5.58621 18.7097C5.58621 19.4213 6.14295 20 6.82759 20C7.51222 20 8.06897 19.4213 8.06866 18.6961L8.06715 18.6542C8.37658 18.6872 8.68844 18.7097 9 18.7097C9.52325 18.7097 10.045 18.6604 10.5573 18.5674L10.5517 18.7097C10.5517 19.4213 11.1085 20 11.7931 20C12.4777 20 13.0345 19.4213 13.0342 18.6961L12.9957 17.7345C16.0396 16.1626 18 12.8939 18 9.35484V9.35484ZM10.5517 9.35484H13.0345C13.0345 10.0665 12.4777 10.6452 11.7931 10.6452C11.1085 10.6452 10.5517 10.0665 10.5517 9.35484ZM13.6552 9.35484V4.83871H13.0345V8.70968H12.1034V4.83871H11.4828V8.70968H10.5517V4.83871H9.93103V9.35484C9.93103 10.0684 10.3053 10.6913 10.8596 11.0268L10.6643 15.9038C9.78829 16.1432 8.85483 16.1894 7.96259 16.0413L7.76241 11.0512C8.66889 10.5703 9.31034 9.41359 9.31034 8.06452C9.31034 6.28575 8.19656 4.83871 6.82759 4.83871C5.45861 4.83871 4.34483 6.28575 4.34483 8.06452C4.34483 9.41359 4.98628 10.5703 5.89276 11.0509L5.72623 15.2106C3.71762 13.9981 2.48276 11.7887 2.48276 9.35484C2.48276 5.61964 5.40618 2.58065 9 2.58065C12.5938 2.58065 15.5172 5.61964 15.5172 9.35484C15.5172 11.5165 14.5374 13.5222 12.8781 14.7993L12.7269 11.0268C13.2809 10.6913 13.6552 10.0684 13.6552 9.35484V9.35484ZM4.96552 8.06452C4.96552 6.64157 5.80063 5.48387 6.82759 5.48387C7.85454 5.48387 8.68965 6.64157 8.68965 8.06452C8.68965 9.48746 7.85454 10.6452 6.82759 10.6452C5.80063 10.6452 4.96552 9.48746 4.96552 8.06452ZM6.82759 19.3548C6.48527 19.3548 6.2069 19.0655 6.20659 18.7232L6.50572 11.2599C6.61134 11.278 6.71833 11.2903 6.82759 11.2903C6.93684 11.2903 7.04383 11.278 7.14945 11.2599L7.44828 18.7097C7.44828 19.0655 7.1699 19.3548 6.82759 19.3548ZM8.04078 18.0003L7.98835 16.6926C8.32248 16.7419 8.66041 16.7742 9 16.7742C9.55371 16.7742 10.1023 16.7043 10.6373 16.5738L10.5843 17.902C9.75071 18.0674 8.88544 18.1003 8.04078 18.0003V18.0003ZM11.7931 19.3548C11.4508 19.3548 11.1724 19.0655 11.1721 18.7232L11.4712 11.2593C11.5761 11.2784 11.6832 11.2903 11.7931 11.2903C11.903 11.2903 12.0101 11.2784 12.115 11.2593L12.4138 18.7097C12.4138 19.0655 12.1354 19.3548 11.7931 19.3548ZM12.9672 17.0232L12.9086 15.5636C14.9306 14.1852 16.1379 11.8662 16.1379 9.35484C16.1379 5.26351 12.9358 1.93548 9 1.93548C5.06417 1.93548 1.86207 5.26351 1.86207 9.35484C1.86207 12.1332 3.3306 14.6458 5.69759 15.932L5.64182 17.33C2.62429 15.9533 0.62069 12.8026 0.62069 9.35484C0.62069 4.5522 4.37953 0.645161 9 0.645161C13.6205 0.645161 17.3793 4.5522 17.3793 9.35484C17.3793 12.5529 15.6594 15.5132 12.9672 17.0232Z" fill="#3634E3"/>
</svg>

<svg width="18" height="20" fill="none" xmlns="http://www.w3.org/2000/svg"><path d="M18 9.355C18 4.197 13.963 0 9 0S0 4.197 0 9.355c0 3.787 2.25 7.241 5.614 8.664l-.028.69c0 .712.557 1.291 1.242 1.291.684 0 1.241-.579 1.24-1.304v-.042c.309.033.62.056.932.056.523 0 1.045-.05 1.557-.143l-.005.143c0 .711.556 1.29 1.241 1.29s1.242-.579 1.241-1.304l-.038-.962C16.04 16.163 18 12.895 18 9.354zm-7.448 0h2.482c0 .711-.556 1.29-1.24 1.29-.686 0-1.242-.579-1.242-1.29zm3.103 0V4.839h-.62v3.87h-.932V4.84h-.62v3.87h-.931V4.84H9.93v4.516c0 .713.374 1.336.929 1.672l-.196 4.877c-.876.24-1.81.285-2.701.137l-.2-4.99c.906-.48 1.547-1.637 1.547-2.986 0-1.78-1.113-3.226-2.482-3.226-1.37 0-2.483 1.447-2.483 3.226 0 1.349.641 2.505 1.548 2.986l-.167 4.16c-2.008-1.213-3.243-3.422-3.243-5.856C2.483 5.62 5.406 2.58 9 2.58s6.517 3.039 6.517 6.774c0 2.162-.98 4.167-2.639 5.444l-.151-3.772a1.95 1.95 0 00.928-1.672zm-8.69-1.29c0-1.423.836-2.581 1.863-2.581 1.027 0 1.862 1.158 1.862 2.58 0 1.423-.835 2.581-1.862 2.581-1.027 0-1.862-1.158-1.862-2.58zm1.863 11.29a.631.631 0 01-.621-.632l.299-7.463a1.9 1.9 0 00.322.03 1.9 1.9 0 00.321-.03l.3 7.45a.634.634 0 01-.621.645zM8.04 18l-.053-1.307c.334.049.672.081 1.012.081.554 0 1.102-.07 1.637-.2l-.053 1.328A8.18 8.18 0 018.041 18zm3.752 1.355a.631.631 0 01-.62-.632l.298-7.464a1.715 1.715 0 00.644.001l.299 7.45a.634.634 0 01-.62.645zm1.174-2.332l-.058-1.46c2.022-1.378 3.229-3.697 3.229-6.208 0-4.091-3.202-7.42-7.138-7.42s-7.138 3.329-7.138 7.42c0 2.778 1.469 5.29 3.836 6.577l-.056 1.398C2.624 15.953.62 12.803.62 9.355.62 4.552 4.38.645 9 .645c4.62 0 8.38 3.907 8.38 8.71 0 3.198-1.72 6.158-4.413 7.668z" fill="#3634E3"/></svg>
